svgs/locus.svg

<svg width="192" height="192" viewBox="0 0 192 192" fill="none" xmlns="http://www.w3.org/2000/svg">
<path d="M104.971 163.92L89.1615 103.005C89.0579 102.606 88.7451 102.295 88.3453 102.193L28.1154 86.9041C21.7111 85.2785 21.1733 76.3884 27.3349 74.0026L157.622 23.5529C164.018 21.0766 170.321 27.3515 167.874 33.758L117.875 164.637C115.518 170.806 106.631 170.313 104.971 163.92Z" stroke="black" stroke-width="14" stroke-linecap="round" stroke-linejoin="round"/>
</svg>

<svg width="192" height="192" viewBox="0 0 192 192" fill="none" xmlns="http://www.w3.org/2000/svg"><path d="m104.971 163.92-15.81-60.915a1.132 1.132 0 0 0-.816-.812l-60.23-15.289c-6.404-1.626-6.942-10.516-.78-12.901l130.287-50.45c6.396-2.476 12.699 3.799 10.252 10.205l-49.999 130.879c-2.357 6.169-11.244 5.676-12.904-.717Z" stroke="#000" stroke-width="14" stroke-linecap="round" stroke-linejoin="round"/></svg>
